X:631
T:Turkey in the Straw
T:Tune
M:4/4
L:1/8
K:D
P:A
fe|"D"dcde d2FG|ABAF A2de|"D"f2f2 fede|"Em"f2e2 "A7"e2fe|
"D"dcde d2FG|ABAF A2de|"D"fa2b afde|"A7"f2e2 "D"d2:|
P:B
|:e2|"D"fa2f a2a2|fa2f a4|"G"gb2g b2b2|gb2g b2c'2|
"D"d'2d'2 a2a2|f2f2 "A7"e2de|"D"fa2b afde|"A7"f2e2 "D"d2:|
T:Harmony
P:A
z2|"D"z8|z6 DE|"D"F2A2 A2FA|"Em"B2A2 "A7"A2z2|
"D"z8|z6 AA|"D"d2A2 B2AG|"A7"A2c2 "D"d2:|
P:B
|:A2|"D"df2d f2f2|df2d f4|"G"dg2d g2f2|
"D"a2a2 f2f2|d2d2 "A7"c2Bc|"D"d2A2 B2AG|"A7"A2c2 "D"d2:|
%%newpage
%%textfont * 20
%%text S1 (1.0)
%%textfont * 12



